pkgs/clan-app/ui/icons/tag.svg

<svg xmlns="http://www.w3.org/2000/svg" width="48" height="48" viewBox="0 0 48 48" fill="currentColor">
    <path d="M39.4004 31.2002H35.7998V34.7998H32.2002V38.3994H28.5996V42H25V38.3994H21.4004V34.7998H17.7998V31.2002H14.2002V27.6006H39.4004V31.2002ZM28.5996 13.2002H32.2002V16.7998H35.7998V20.3994H39.4004V24H43V27.5996H10.5996V24H7V9.60059H28.5996V13.2002ZM14.2002 13.2002V16.7998H17.7998V13.2002H14.2002ZM25 9.59961H7V6H25V9.59961Z"/>
</svg>

<svg xmlns="http://www.w3.org/2000/svg" width="48" height="48" fill="currentColor"><path d="M39.4 31.2h-3.6v3.6h-3.6v3.6h-3.6V42H25v-3.6h-3.6v-3.6h-3.6v-3.6h-3.6v-3.6h25.2zm-10.8-18h3.6v3.6h3.6v3.6h3.6V24H43v3.6H10.6V24H7V9.6h21.6zm-14.4 0v3.6h3.6v-3.6zM25 9.6H7V6h18z"/></svg>
